Newaita-dark/.DP/16/smplayer-panel.svg

<svg xmlns="http://www.w3.org/2000/svg" xmlns:xlink="http://www.w3.org/1999/xlink" width="16px" height="16px" viewBox="0 0 16 16" version="1.1">
<g id="surface1">
<path style=" stroke:none;fill-rule:nonzero;fill:rgb(93.333334%,93.333334%,93.333334%);fill-opacity:1;" d="M 4.796875 2.621094 C 1.78125 4.363281 0.753906 8.191406 2.496094 11.207031 C 4.238281 14.21875 8.066406 15.246094 11.082031 13.503906 C 14.09375 11.765625 15.121094 7.9375 13.378906 4.921875 C 11.640625 1.90625 7.8125 0.878906 4.796875 2.621094 Z M 4.90625 4.019531 C 4.914062 4.015625 4.917969 4.015625 4.921875 4.011719 C 5.054688 3.941406 5.222656 3.984375 5.300781 4.117188 L 6.511719 6.21875 C 6.578125 6.332031 6.558594 6.472656 6.464844 6.5625 C 6.324219 6.699219 6.203125 6.859375 6.105469 7.027344 C 6.042969 7.140625 5.914062 7.195312 5.789062 7.164062 L 3.441406 6.535156 C 3.277344 6.488281 3.191406 6.3125 3.253906 6.15625 C 3.597656 5.3125 4.160156 4.582031 4.886719 4.035156 C 4.894531 4.03125 4.902344 4.023438 4.90625 4.019531 Z M 5.953125 3.414062 L 5.980469 3.402344 C 6.816406 3.046875 7.734375 2.925781 8.632812 3.050781 C 8.800781 3.074219 8.910156 3.238281 8.867188 3.402344 L 8.238281 5.75 C 8.203125 5.871094 8.089844 5.960938 7.960938 5.957031 C 7.765625 5.957031 7.570312 5.984375 7.378906 6.035156 C 7.253906 6.070312 7.125 6.015625 7.058594 5.90625 L 5.84375 3.804688 C 5.765625 3.667969 5.816406 3.492188 5.953125 3.414062 Z M 3.0625 7.171875 C 3.128906 7.132812 3.207031 7.121094 3.28125 7.140625 L 5.625 7.769531 C 5.75 7.804688 5.835938 7.917969 5.835938 8.046875 C 5.832031 8.242188 5.859375 8.4375 5.910156 8.628906 C 5.945312 8.753906 5.894531 8.886719 5.78125 8.949219 L 3.679688 10.164062 C 3.535156 10.246094 3.347656 10.183594 3.28125 10.027344 C 2.925781 9.191406 2.804688 8.277344 2.929688 7.375 C 2.941406 7.292969 2.988281 7.214844 3.0625 7.171875 Z M 9.609375 3.394531 C 9.683594 3.351562 9.773438 3.347656 9.851562 3.378906 C 10.671875 3.710938 11.410156 4.265625 11.972656 5.007812 C 12.074219 5.144531 12.035156 5.339844 11.890625 5.421875 L 9.789062 6.636719 C 9.675781 6.699219 9.535156 6.679688 9.445312 6.589844 C 9.308594 6.449219 9.152344 6.328125 8.980469 6.230469 C 8.867188 6.167969 8.8125 6.035156 8.84375 5.910156 L 9.472656 3.566406 C 9.492188 3.492188 9.542969 3.429688 9.609375 3.394531 Z M 6.550781 7.453125 C 6.617188 7.414062 6.699219 7.402344 6.777344 7.421875 C 6.9375 7.464844 7.03125 7.628906 6.988281 7.789062 C 6.949219 7.945312 6.785156 8.042969 6.625 8 C 6.464844 7.957031 6.371094 7.792969 6.414062 7.632812 C 6.433594 7.554688 6.484375 7.488281 6.550781 7.453125 Z M 8.160156 6.644531 C 8.222656 6.609375 8.304688 6.59375 8.386719 6.617188 C 8.542969 6.660156 8.640625 6.824219 8.597656 6.980469 C 8.554688 7.140625 8.390625 7.234375 8.230469 7.191406 C 8.113281 7.164062 8.027344 7.0625 8.011719 6.945312 C 7.996094 6.824219 8.054688 6.707031 8.160156 6.644531 Z M 3.996094 10.707031 L 6.097656 9.496094 C 6.207031 9.429688 6.347656 9.449219 6.4375 9.542969 C 6.578125 9.683594 6.734375 9.804688 6.90625 9.902344 C 7.015625 9.964844 7.074219 10.09375 7.039062 10.21875 L 6.410156 12.566406 C 6.367188 12.730469 6.1875 12.816406 6.03125 12.753906 C 5.191406 12.410156 4.460938 11.847656 3.910156 11.121094 C 3.808594 10.988281 3.847656 10.792969 3.996094 10.707031 Z M 12.203125 5.96875 C 12.351562 5.882812 12.539062 5.949219 12.605469 6.101562 C 12.960938 6.9375 13.082031 7.855469 12.957031 8.753906 C 12.933594 8.921875 12.769531 9.03125 12.605469 8.988281 L 10.257812 8.359375 C 10.136719 8.328125 10.050781 8.214844 10.050781 8.085938 C 10.050781 7.886719 10.027344 7.691406 9.972656 7.503906 C 9.9375 7.378906 9.992188 7.246094 10.101562 7.183594 Z M 7.503906 9.097656 C 7.566406 9.058594 7.648438 9.046875 7.730469 9.066406 C 7.886719 9.109375 7.984375 9.273438 7.941406 9.433594 C 7.898438 9.59375 7.734375 9.6875 7.574219 9.644531 C 7.414062 9.601562 7.320312 9.4375 7.363281 9.277344 C 7.382812 9.199219 7.4375 9.132812 7.503906 9.097656 Z M 9.148438 8.148438 C 9.332031 8.039062 9.566406 8.15625 9.59375 8.367188 C 9.621094 8.578125 9.425781 8.75 9.21875 8.695312 C 9.101562 8.664062 9.015625 8.5625 9 8.445312 C 8.984375 8.324219 9.042969 8.207031 9.148438 8.148438 Z M 7.789062 10.207031 C 7.828125 10.183594 7.875 10.171875 7.921875 10.171875 C 8.117188 10.175781 8.3125 10.148438 8.503906 10.097656 C 8.628906 10.0625 8.761719 10.113281 8.828125 10.226562 L 10.039062 12.328125 C 10.125 12.472656 10.0625 12.660156 9.90625 12.726562 C 9.070312 13.082031 8.152344 13.203125 7.253906 13.078125 C 7.085938 13.058594 6.976562 12.890625 7.019531 12.726562 L 7.648438 10.382812 C 7.667969 10.3125 7.710938 10.25 7.773438 10.214844 C 7.777344 10.210938 7.78125 10.207031 7.789062 10.207031 Z M 9.878906 9 C 9.945312 8.960938 10.023438 8.949219 10.097656 8.96875 L 12.441406 9.597656 C 12.605469 9.640625 12.695312 9.820312 12.628906 9.976562 C 12.296875 10.796875 11.742188 11.535156 11 12.097656 C 10.863281 12.199219 10.667969 12.160156 10.585938 12.011719 L 9.371094 9.910156 C 9.308594 9.800781 9.328125 9.660156 9.417969 9.570312 C 9.558594 9.429688 9.679688 9.273438 9.777344 9.101562 C 9.800781 9.058594 9.835938 9.023438 9.878906 9 Z M 9.878906 9 "/>
</g>
</svg>

<svg xmlns="http://www.w3.org/2000/svg" width="16" height="16"><path d="M4.797 2.621a6.27 6.27 0 0 0-2.3 8.586 6.273 6.273 0 0 0 8.585 2.297 6.268 6.268 0 0 0 2.297-8.582 6.265 6.265 0 0 0-8.582-2.3zm.11 1.399c.007-.004.011-.004.015-.008.133-.07.3-.028.379.105L6.51 6.22a.278.278 0 0 1-.046.343c-.14.137-.262.297-.36.465a.281.281 0 0 1-.316.137l-2.348-.629a.284.284 0 0 1-.187-.379A5.021 5.021 0 0 1 4.906 4.02zm1.046-.606l.027-.012a5.016 5.016 0 0 1 2.653-.351.282.282 0 0 1 .234.351L8.238 5.75a.285.285 0 0 1-.277.207c-.195 0-.39.027-.582.078a.284.284 0 0 1-.32-.129L5.844 3.805a.288.288 0 0 1 .11-.39zm-2.89 3.758a.286.286 0 0 1 .218-.031l2.344.629c.125.035.21.148.21.277-.003.195.024.39.075.582a.277.277 0 0 1-.129.32L3.68 10.164a.283.283 0 0 1-.399-.137 5.01 5.01 0 0 1-.351-2.652.28.28 0 0 1 .132-.203zm6.546-3.777a.278.278 0 0 1 .243-.016c.82.332 1.558.887 2.12 1.629a.283.283 0 0 1-.081.414L9.789 6.637a.29.29 0 0 1-.344-.047 2.084 2.084 0 0 0-.465-.36.286.286 0 0 1-.136-.32l.629-2.344a.275.275 0 0 1 .136-.171zM6.551 7.453A.299.299 0 1 1 6.625 8a.299.299 0 0 1-.21-.367.28.28 0 0 1 .136-.18zm1.61-.808a.3.3 0 0 1 .438.336.299.299 0 0 1-.369.21.292.292 0 0 1-.218-.246.304.304 0 0 1 .148-.3zm-4.165 4.062l2.102-1.21a.273.273 0 0 1 .34.046c.14.14.296.262.468.36.11.062.168.19.133.316l-.629 2.347a.283.283 0 0 1-.379.188 5.07 5.07 0 0 1-2.12-1.633.282.282 0 0 1 .085-.414zm8.207-4.738a.285.285 0 0 1 .402.133c.356.835.477 1.753.352 2.652a.282.282 0 0 1-.352.234l-2.347-.629a.281.281 0 0 1-.207-.273c0-.2-.024-.395-.078-.582a.282.282 0 0 1 .129-.32zm-4.7 3.129a.298.298 0 0 1 .227-.032.299.299 0 1 1-.367.21.286.286 0 0 1 .14-.178zm1.645-.95a.297.297 0 0 1 .446.22.3.3 0 0 1-.594.077.295.295 0 0 1 .148-.297zM7.79 10.207a.26.26 0 0 1 .133-.035c.195.004.39-.024.582-.074a.284.284 0 0 1 .324.129l1.211 2.101a.279.279 0 0 1-.133.399 5.016 5.016 0 0 1-2.652.351.28.28 0 0 1-.234-.351l.628-2.344a.274.274 0 0 1 .125-.168c.004-.004.008-.008.016-.008zM9.88 9a.286.286 0 0 1 .219-.031l2.343.629a.28.28 0 0 1 .188.379A5.033 5.033 0 0 1 11 12.097a.28.28 0 0 1-.414-.085L9.37 9.91a.284.284 0 0 1 .047-.34 2.2 2.2 0 0 0 .36-.468.254.254 0 0 1 .1-.102zm0 0" fill="#bdbdbd"/></svg>
